X:7810
T:Up Shinking. JMT025
T:Ap Shenkin. JMT025
O:england
M:6/8
L:1/8
S:J.Moore,Tyneside,1841.(18)
R:Jig
A:Northumbria
H:184
K:G
d-/c/|B2B Bgf|e2e efg|ded dcB|B-AAA2d/c/|B2B Bgf|e2e efg|ded cBA|A-GGG2
:|
|g/-a/|b2ga2f|gfe dcB|cdc BgB|B-AAA2g/a/|b2ga2f|gfe agf|bag fge|dgf edc
|B2B Bgf|e2e efg|
ded dcB|B-AAA2d/c/|B2BBgf|e2eefg|ded cBA|A-GGG2|]
